X:256
T:Double Jig
B:Kerr's Merry Melodies Bk.4, p25
Z:Nigel Gatherer
M:6/8
L:1/8
K:A
(3E/F/G/|AcB Afd|cea cea|AcB AGA|GBe GBe|AcB Afd|
cea cea|fdB Abc|BAB A2::c|eaf faf|faf ecA|dfd ecA|
ecA B2 A|faf fag|faf ecA|dfd ecA|EFG A2:|
<end>
<start>
